public/assets/images/desktop-computer.svg

<svg width="50" height="50" viewBox="0 0 50 50" fill="none" xmlns="http://www.w3.org/2000/svg">
<path d="M6.25 27.0833H43.75M20.3125 35.4167L18.75 41.6667L16.6667 43.75H33.3333L31.25 41.6667L29.6875 35.4167H20.3125ZM10.4167 35.4167H39.5833C40.6884 35.4167 41.7482 34.9777 42.5296 34.1963C43.311 33.4149 43.75 32.3551 43.75 31.25V10.4167C43.75 9.3116 43.311 8.25179 42.5296 7.47039C41.7482 6.68899 40.6884 6.25 39.5833 6.25H10.4167C9.3116 6.25 8.25179 6.68899 7.47039 7.47039C6.68899 8.25179 6.25 9.3116 6.25 10.4167V31.25C6.25 32.3551 6.68899 33.4149 7.47039 34.1963C8.25179 34.9777 9.3116 35.4167 10.4167 35.4167Z" stroke="#FF588A" stroke-width="4" stroke-linecap="round" stroke-linejoin="round"/>
</svg>

<svg xmlns="http://www.w3.org/2000/svg" width="50" height="50" fill="none"><path stroke="#FF588A" stroke-linecap="round" stroke-linejoin="round" stroke-width="4" d="M6.25 27.083h37.5m-23.438 8.334-1.562 6.25-2.083 2.083h16.666l-2.083-2.083-1.563-6.25h-9.375Zm-9.895 0h29.166a4.167 4.167 0 0 0 4.167-4.167V10.417a4.167 4.167 0 0 0-4.167-4.167H10.417a4.167 4.167 0 0 0-4.167 4.167V31.25a4.167 4.167 0 0 0 4.167 4.167Z"/></svg>
